docs/imgs/brand-ferm.svg

<svg width="94" height="45" viewBox="0 0 94 45" fill="none" xmlns="http://www.w3.org/2000/svg">
<path d="M93.65 10.53C93.49 10.45 93.19 9.97 93.07 9.87V9.8L93.13 9.74L93.27 9.68L93.4 9.62C93.4 9.62 93.6 9.57 93.6 9.53C93.6 9.49 93.54 9.53 93.54 9.53C93.5119 9.5024 93.4776 9.48184 93.44 9.47H93.32H93.08C93.08 9.47 91.71 9.38 91.47 9.32C90.2642 9.18386 89.0905 8.84226 88 8.31L86.42 7.46L85 6.71C84.6916 6.52339 84.3533 6.39145 84 6.32C83.5777 6.21265 83.1757 6.037 82.81 5.8C82.4501 5.53829 82.1153 5.24369 81.81 4.92C81.3849 4.54476 80.8538 4.31067 80.29 4.25C79.7366 4.15066 79.1675 4.18494 78.63 4.35C78.2618 4.52256 77.9599 4.81043 77.77 5.17C77.7543 5.20631 77.7462 5.24545 77.7462 5.285C77.7462 5.32455 77.7543 5.36369 77.77 5.4L77.28 5.73L77.1 5.89C77.0664 5.91039 77.0415 5.94242 77.03 5.98C77.03 5.98 77.03 6.04 77.03 6.04L77.35 6.16C77.4276 6.19347 77.5079 6.22023 77.59 6.24C77.7027 6.257 77.8173 6.257 77.93 6.24L78.05 6.68C78.0346 6.97895 78.0616 7.27858 78.13 7.57C78.2685 8.59961 78.7854 9.54077 79.58 10.21C79.8879 10.4777 80.2231 10.7124 80.58 10.91C81.2945 11.2314 82.0424 11.4729 82.81 11.63H83L82.88 11.68L82.63 11.83L82.4 11.93L82.18 11.99H81.97L81.78 12L81.56 11.89C81.56 11.89 81.26 11.89 81.19 11.89C81.2741 11.9293 81.3544 11.9762 81.43 12.03C81.3162 12.0667 81.1938 12.0667 81.08 12.03C80.9518 11.9778 80.8082 11.9778 80.68 12.03C80.28 12.03 79.86 11.95 79.41 11.93C78.4681 11.9095 77.5362 12.1262 76.7 12.56C75.9521 12.9557 75.2452 13.4246 74.59 13.96H74.26C73.503 13.3904 72.6763 12.9199 71.8 12.56C70.6847 12.1145 69.4906 11.9002 68.29 11.93C67.5855 11.8843 66.8834 12.0504 66.274 12.4068C65.6646 12.7631 65.1756 13.2936 64.87 13.93L64.46 13.86V12.16H57.71V13.37C59.65 13.77 60.62 14.3367 60.62 15.07V35H64.46V19.12C64.4585 18.3886 64.4952 17.6576 64.57 16.93C64.6267 16.2931 64.7925 15.6707 65.06 15.09C65.3151 14.5609 65.7136 14.114 66.21 13.8C66.9039 13.4501 67.6754 13.2822 68.4519 13.3119C69.2285 13.3417 69.9848 13.5681 70.65 13.97C71.2417 14.3954 71.708 14.9723 72 15.64C72.3068 16.3718 72.4925 17.1486 72.55 17.94C72.6233 18.8 72.66 19.65 72.66 20.49V35H75.8V17.86C75.7974 17.2383 75.8341 16.6171 75.91 16C75.9627 15.4903 76.1192 14.9968 76.37 14.55C76.6167 14.1433 76.9887 13.8275 77.43 13.65C78.0704 13.4191 78.7501 13.3171 79.43 13.35C80.2644 13.3071 81.0899 13.5389 81.78 14.01C82.3563 14.4413 82.8083 15.0175 83.09 15.68C83.3971 16.4117 83.5829 17.1885 83.64 17.98C83.7133 18.84 83.75 19.69 83.75 20.53V35H87.4V20.53C87.4134 19.2588 87.2791 17.9903 87 16.75C86.7877 15.7824 86.3452 14.8802 85.71 14.12C85.2168 13.5664 84.6096 13.1263 83.93 12.83H84.07L84.6 12.88H84.74V12.76C84.74 12.76 84.74 12.52 85.12 12.76L85.27 12.91C85.266 12.8129 85.2276 12.7203 85.1616 12.6489C85.0957 12.5775 85.0065 12.5318 84.91 12.52C84.8477 12.5078 84.7836 12.5086 84.7216 12.5223C84.6597 12.5361 84.6012 12.5626 84.55 12.6H84.44H84.24H84L83.79 12.53V12.44C83.79 12.44 83.79 12.26 83.94 12.31L84.17 12.41L84 12.18L84.52 11.7C84.52 11.7 86.02 11.6 86.43 10.93C86.6224 10.9249 86.8145 10.9485 87 11C87.23 11.08 88 11.06 88.31 11.14C88.5778 11.1874 88.8483 11.2175 89.12 11.23C89.12 11.23 89.4 11.18 89.12 11C89.0128 10.8788 88.8881 10.7743 88.75 10.69L88 10.3L88.34 10.25L89.02 10.16C89.4663 10.0474 89.9337 10.0474 90.38 10.16L91.15 10.35C91.15 10.35 92.15 10.48 92.74 10.62L93.54 10.82C93.5898 10.8258 93.6402 10.8258 93.69 10.82V10.75C93.7039 10.7035 93.7005 10.6534 93.6802 10.6093C93.66 10.5651 93.6244 10.5298 93.58 10.51L93.65 10.53ZM25.14 12.66H25.19C27.7833 12.7 29.08 15.3067 29.08 20.48V20.8L28.81 21.06H21.46L21.19 20.8C21.2233 15.38 22.5367 12.6667 25.13 12.66H25.14ZM33.29 22.24C33.29 15.22 30.7 11.71 25.52 11.71C22.54 11.71 20.3567 12.71 18.97 14.71C17.5833 16.71 16.8933 19.6933 16.9 23.66C16.9 27.2733 17.5667 30.03 18.9 31.93C20.2333 33.83 22.37 34.7933 25.31 34.82H25.52C27.1959 34.9114 28.8669 34.5669 30.37 33.82C31.5701 33.1346 32.5197 32.0834 33.08 30.82L32.01 30.02C30.59 32.3133 29.0433 33.4933 27.37 33.56H27.26C23.0667 33.56 20.97 29.8933 20.97 22.56L21.24 22.29L33.29 22.24ZM54.35 13.79C53.9961 13.2776 53.5356 12.8478 53 12.53C52.5182 12.2421 51.9905 12.0392 51.44 11.93C50.9668 11.8244 50.4846 11.7641 50 11.75H49.84C48.9786 11.7205 48.1263 11.9337 47.3802 12.3651C46.6341 12.7965 46.0242 13.4288 45.62 14.19L45.11 14V12.16H38.4V13.37C40.4 13.77 41.4 14.3367 41.4 15.07V35H45.16V21.54C45.1329 20.116 45.2434 18.6927 45.49 17.29C45.6401 16.4066 45.9376 15.5548 46.37 14.77C46.6524 14.2443 47.0933 13.8209 47.63 13.56C48.0981 13.3612 48.6015 13.2592 49.11 13.26C49.6405 13.2636 50.1646 13.3759 50.65 13.59L50.76 13.76V14.21C50.76 14.56 50.51 15.12 50.51 15.75C50.4752 16.3004 50.6503 16.8436 51 17.27C51.1824 17.4714 51.4068 17.6304 51.6573 17.7358C51.9079 17.8412 52.1784 17.8904 52.45 17.88C52.7712 17.8873 53.0903 17.827 53.3866 17.703C53.6829 17.5789 53.9498 17.3939 54.17 17.16C54.6275 16.6797 54.8849 16.0433 54.89 15.38C54.8224 14.7982 54.6278 14.2383 54.32 13.74L54.35 13.79ZM3.07 8.35V11.81L2.8 12.08H0V13.34C2.04667 13.74 3.07 14.18 3.07 14.66V35H6.91V14.69C6.91 14.2167 8.06333 13.7767 10.37 13.37V12.1H7.18L6.91 11.83V10.13C6.97 4.30333 8.78 1.33333 12.34 1.22V0C6.16 0 3.07 2.78333 3.07 8.35Z" fill="#6F6F6F"/>
<path d="M17.1099 41.1299H17.5999V44.4299H19.1799V44.8299H17.1099V41.1299Z" fill="#6F6F6F"/>
<path d="M28.3999 41.1299H27.9199V44.8199H28.3999V41.1299Z" fill="#6F6F6F"/>
<path d="M38.2701 44.8299L37.0601 41.1399H37.5801L38.1501 42.9999C38.3001 43.4999 38.4401 43.9999 38.5401 44.3799C38.6401 43.9499 38.7901 43.4899 38.9601 42.9999L39.5901 41.1799H40.1001L38.7801 44.8699L38.2701 44.8299Z" fill="#6F6F6F"/>
<path d="M49.21 41.1299H48.73V44.8199H49.21V41.1299Z" fill="#6F6F6F"/>
<path d="M58.2598 44.8299V41.1299H58.7898L59.9998 42.9999C60.2473 43.3841 60.4678 43.7851 60.6598 44.1999V44.1999C60.6598 43.7099 60.6098 43.2599 60.6098 42.6899V41.1299H60.9998V44.8199H60.5198L59.3798 42.9999C59.1261 42.6054 58.899 42.1945 58.6998 41.7699V41.7699C58.6998 42.2399 58.6998 42.6799 58.6998 43.2899V44.8699L58.2598 44.8299Z" fill="#6F6F6F"/>
<path d="M72.9098 44.6599C72.5444 44.7924 72.1586 44.8601 71.7698 44.8599C71.5174 44.8857 71.2624 44.8556 71.023 44.7718C70.7835 44.688 70.5654 44.5526 70.384 44.3751C70.2027 44.1976 70.0627 43.9824 69.9738 43.7448C69.885 43.5071 69.8495 43.2528 69.8698 42.9999C69.8605 42.7388 69.9066 42.4787 70.005 42.2367C70.1034 41.9947 70.252 41.7763 70.441 41.5958C70.6299 41.4154 70.8549 41.277 71.1012 41.1898C71.3475 41.1026 71.6095 41.0686 71.8698 41.0899C72.1883 41.0819 72.5049 41.1398 72.7998 41.2599L72.6798 41.6499C72.4225 41.5341 72.1419 41.4793 71.8598 41.4899C71.6589 41.4744 71.457 41.503 71.2684 41.5738C71.0797 41.6446 70.9088 41.7559 70.7678 41.8998C70.6267 42.0438 70.5189 42.2168 70.4519 42.4069C70.3848 42.5969 70.3603 42.7994 70.3798 42.9999C70.3592 43.1947 70.3812 43.3915 70.4443 43.5769C70.5073 43.7623 70.61 43.9318 70.7451 44.0735C70.8802 44.2153 71.0445 44.3259 71.2266 44.3978C71.4087 44.4698 71.6044 44.5012 71.7998 44.4899C72.0178 44.5012 72.2357 44.4671 72.4398 44.3899V43.2899H71.6898V42.9099H72.9098V44.6599Z" fill="#6F6F6F"/>
</svg>

<svg width="94" height="45" fill="none" xmlns="http://www.w3.org/2000/svg"><path d="M93.65 10.53c-.16-.08-.46-.56-.58-.66V9.8l.06-.06.14-.06.13-.06s.2-.05.2-.09c0-.04-.06 0-.06 0a.25.25 0 0 0-.1-.06h-.36s-1.37-.09-1.61-.15A10.63 10.63 0 0 1 88 8.31l-1.58-.85L85 6.71a3.13 3.13 0 0 0-1-.39 4 4 0 0 1-1.19-.52 7.176 7.176 0 0 1-1-.88 2.74 2.74 0 0 0-1.52-.67 3.53 3.53 0 0 0-1.66.1 1.87 1.87 0 0 0-.86.82.29.29 0 0 0 0 .23l-.49.33-.18.16a.16.16 0 0 0-.07.09v.06l.32.12c.078.033.158.06.24.08.113.017.227.017.34 0l.12.44a3.18 3.18 0 0 0 .08.89 4.18 4.18 0 0 0 1.45 2.64c.308.268.643.502 1 .7.715.321 1.462.563 2.23.72H83l-.12.05-.25.15-.23.1-.22.06h-.21l-.19.01-.22-.11h-.37c.084.04.164.086.24.14a.57.57 0 0 1-.35 0 .53.53 0 0 0-.4 0c-.4 0-.82-.08-1.27-.1a5.62 5.62 0 0 0-2.71.63 12.78 12.78 0 0 0-2.11 1.4h-.33a11.114 11.114 0 0 0-2.46-1.4 8.869 8.869 0 0 0-3.51-.63 3.54 3.54 0 0 0-3.42 2l-.41-.07v-1.7h-6.75v1.21c1.94.4 2.91.967 2.91 1.7V35h3.84V19.12c-.001-.731.035-1.462.11-2.19a5.58 5.58 0 0 1 .49-1.84 3.14 3.14 0 0 1 1.15-1.29 4.59 4.59 0 0 1 4.44.17A4.06 4.06 0 0 1 72 15.64a7.32 7.32 0 0 1 .55 2.3c.073.86.11 1.71.11 2.55V35h3.14V17.86c-.003-.622.034-1.243.11-1.86a3.75 3.75 0 0 1 .46-1.45 2.2 2.2 0 0 1 1.06-.9c.64-.23 1.32-.333 2-.3a3.82 3.82 0 0 1 2.35.66 4.08 4.08 0 0 1 1.31 1.67 7.3 7.3 0 0 1 .55 2.3c.073.86.11 1.71.11 2.55V35h3.65V20.53a16.43 16.43 0 0 0-.4-3.78 6.161 6.161 0 0 0-1.29-2.63 5.13 5.13 0 0 0-1.78-1.29h.14l.53.05h.14v-.12s0-.24.38 0l.15.15a.41.41 0 0 0-.36-.39.462.462 0 0 0-.36.08H84l-.21-.07v-.09s0-.18.15-.13l.23.1-.17-.23.52-.48s1.5-.1 1.91-.77A1.93 1.93 0 0 1 87 11c.23.08 1 .06 1.31.14.268.047.538.077.81.09 0 0 .28-.05 0-.23a1.623 1.623 0 0 0-.37-.31L88 10.3l.34-.05.68-.09a2.78 2.78 0 0 1 1.36 0l.77.19s1 .13 1.59.27l.8.2c.05.006.1.006.15 0v-.07a.2.2 0 0 0-.11-.24l.07.02zm-68.51 2.13h.05c2.593.04 3.89 2.647 3.89 7.82v.32l-.27.26h-7.35l-.27-.26c.033-5.42 1.347-8.133 3.94-8.14h.01zm8.15 9.58c0-7.02-2.59-10.53-7.77-10.53-2.98 0-5.163 1-6.55 3-1.387 2-2.077 4.983-2.07 8.95 0 3.613.667 6.37 2 8.27 1.333 1.9 3.47 2.863 6.41 2.89h.21a9.71 9.71 0 0 0 4.85-1 6.48 6.48 0 0 0 2.71-3l-1.07-.8c-1.42 2.293-2.967 3.473-4.64 3.54h-.11c-4.193 0-6.29-3.667-6.29-11l.27-.27 12.05-.05zm21.06-8.45A4.32 4.32 0 0 0 53 12.53a4.9 4.9 0 0 0-1.56-.6 7.63 7.63 0 0 0-1.44-.18h-.16a4.6 4.6 0 0 0-4.22 2.44l-.51-.19v-1.84H38.4v1.21c2 .4 3 .967 3 1.7V35h3.76V21.54a22.115 22.115 0 0 1 .33-4.25c.15-.883.448-1.735.88-2.52a2.84 2.84 0 0 1 1.26-1.21 3.77 3.77 0 0 1 3.02.03l.11.17v.45c0 .35-.25.91-.25 1.54a2.18 2.18 0 0 0 .49 1.52 1.86 1.86 0 0 0 1.45.61 2.291 2.291 0 0 0 1.72-.72 2.61 2.61 0 0 0 .72-1.78 4 4 0 0 0-.57-1.64l.03.05zM3.07 8.35v3.46l-.27.27H0v1.26c2.047.4 3.07.84 3.07 1.32V35h3.84V14.69c0-.473 1.153-.913 3.46-1.32V12.1H7.18l-.27-.27v-1.7c.06-5.827 1.87-8.797 5.43-8.91V0C6.16 0 3.07 2.783 3.07 8.35zm14.04 32.78h.49v3.3h1.58v.4h-2.07v-3.7zm11.29 0h-.48v3.69h.48v-3.69zm9.87 3.7l-1.21-3.69h.52l.57 1.86c.15.5.29 1 .39 1.38a14 14 0 0 1 .42-1.38l.63-1.82h.51l-1.32 3.69-.51-.04zm10.94-3.7h-.48v3.69h.48v-3.69zm9.05 3.7v-3.7h.53L60 43c.247.384.468.785.66 1.2 0-.49-.05-.94-.05-1.51v-1.56H61v3.69h-.48L59.38 43a10.603 10.603 0 0 1-.68-1.23v3.1l-.44-.04zm14.65-.17a3.34 3.34 0 0 1-1.14.2 1.729 1.729 0 0 1-1.9-1.86 1.851 1.851 0 0 1 2-1.91c.318-.008.635.05.93.17l-.12.39a1.83 1.83 0 0 0-.82-.16A1.38 1.38 0 0 0 70.38 43a1.35 1.35 0 0 0 1.42 1.49c.218.011.436-.023.64-.1v-1.1h-.75v-.38h1.22v1.75z" fill="#6F6F6F"/></svg>
